2021/frontend/assets/img/clip.svg

<svg fill="none" height="264" viewBox="0 0 384 264" width="384" xmlns="http://www.w3.org/2000/svg" xmlns:xlink="http://www.w3.org/1999/xlink"><filter id="a" color-interpolation-filters="sRGB" filterUnits="userSpaceOnUse" height="264" width="384" x="0" y="0"><feFlood flood-opacity="0" result="BackgroundImageFix"/><feColorMatrix in="SourceAlpha" type="matrix" values="0 0 0 0 0 0 0 0 0 0 0 0 0 0 0 0 0 0 127 0"/><feOffset dy="4"/><feGaussianBlur stdDeviation="2"/><feColorMatrix type="matrix" values="0 0 0 0 0 0 0 0 0 0 0 0 0 0 0 0 0 0 0.25 0"/><feBlend in2="BackgroundImageFix" mode="normal" result="effect1_dropShadow"/><feBlend in="SourceGraphic" in2="effect1_dropShadow" mode="normal" result="shape"/></filter><g fill="#c4c4c4" filter="url(#a)"><path d="m230.571 0h94.156c1.688 0 2.533 2.04239 1.34 3.23704l-160.411 160.55296c-.355.356-.837.556-1.34.556h-94.1557c-1.6881 0-2.5336-2.043-1.3401-3.237l160.4108-160.553444c.355-.355699.837-.555556 1.34-.555556z"/><path d="m274.787 63.2099h72.047c1.689 0 2.534 2.0424 1.34 3.237l-160.41 160.5531c-.355.356-.837.556-1.34.556h-72.048c-1.688 0-2.534-2.043-1.34-3.237l160.41-160.5536c.356-.3557.838-.5555 1.341-.5555z"/><path d="m321.845 113.778h56.256c1.688 0 2.534 2.042 1.34 3.237l-138.302 138.429c-.356.356-.838.556-1.34.556h-56.257c-1.688 0-2.534-2.042-1.34-3.237l138.303-138.43c.355-.355.837-.555 1.34-.555z"/><path d="m134.244 48.9877h30.99c1.689 0 2.534 2.0423 1.34 3.237l-125.6692 122.6273c-.3553.356-.8374.555-1.34.555h-30.99057c-1.68814 0-2.53365-2.042-1.34006-3.237l125.66983-122.6268c.355-.3557.837-.5555 1.34-.5555z"/></g></svg>

<svg width="384" height="264" viewBox="0 0 384 264" fill="none" xmlns="http://www.w3.org/2000/svg">
  <g filter="url(#filter0_d)">
    <path
      d="M230.571 0H324.727C326.415 0 327.26 2.04239 326.067 3.23704L165.656 163.79C165.301 164.146 164.819 164.346 164.316 164.346H70.1603C68.4722 164.346 67.6267 162.303 68.8202 161.109L229.231 0.555556C229.586 0.199857 230.068 0 230.571 0Z"
      fill="#C4C4C4" />
    <path
      d="M274.787 63.2099H346.834C348.523 63.2099 349.368 65.2523 348.174 66.4469L187.764 227C187.409 227.356 186.927 227.556 186.424 227.556H114.376C112.688 227.556 111.842 225.513 113.036 224.319L273.446 63.7654C273.802 63.4097 274.284 63.2099 274.787 63.2099Z"
      fill="#C4C4C4" />
    <path
      d="M321.845 113.778H378.101C379.789 113.778 380.635 115.82 379.441 117.015L241.139 255.444C240.783 255.8 240.301 256 239.799 256H183.542C181.854 256 181.008 253.958 182.202 252.763L320.505 114.333C320.86 113.978 321.342 113.778 321.845 113.778Z"
      fill="#C4C4C4" />
    <path
      d="M134.244 48.9877H165.234C166.923 48.9877 167.768 51.03 166.574 52.2247L40.9048 174.852C40.5495 175.208 40.0674 175.407 39.5648 175.407H8.57423C6.88609 175.407 6.04058 173.365 7.23417 172.17L132.904 49.5432C133.259 49.1875 133.741 48.9877 134.244 48.9877Z"
      fill="#C4C4C4" />
  </g>
  <defs>
    <filter id="filter0_d" x="0" y="0" width="384" height="264" filterUnits="userSpaceOnUse"
      color-interpolation-filters="sRGB">
      <feFlood flood-opacity="0" result="BackgroundImageFix" />
      <feColorMatrix in="SourceAlpha" type="matrix" values="0 0 0 0 0 0 0 0 0 0 0 0 0 0 0 0 0 0 127 0" />
      <feOffset dy="4" />
      <feGaussianBlur stdDeviation="2" />
      <feColorMatrix type="matrix" values="0 0 0 0 0 0 0 0 0 0 0 0 0 0 0 0 0 0 0.25 0" />
      <feBlend mode="normal" in2="BackgroundImageFix" result="effect1_dropShadow" />
      <feBlend mode="normal" in="SourceGraphic" in2="effect1_dropShadow" result="shape" />
    </filter>
  </defs>
</svg>
